documentation/images/open-source.svg

<svg width="24" height="24" viewBox="0 0 24 24" fill="none" xmlns="http://www.w3.org/2000/svg">
<path d="M20 4.49998C18.622 4.49998 17.5 5.62098 17.5 6.99998C17.5 7.07998 17.516 7.15498 17.524 7.23298L15.132 8.78098C14.321 7.99098 13.217 7.49998 11.998 7.49998C11.363 7.49998 10.76 7.63498 10.212 7.87398L8.21 5.14398C8.389 4.79998 8.5 4.41498 8.5 4.00098C8.5 2.62198 7.378 1.50098 6 1.50098C4.622 1.50098 3.5 2.62198 3.5 4.00098C3.5 5.37998 4.622 6.50098 6 6.50098C6.227 6.50098 6.443 6.46098 6.653 6.40398L8.61 9.07298C7.927 9.86198 7.498 10.878 7.498 12.002C7.498 12.637 7.633 13.24 7.872 13.788L6.186 15.024C5.705 14.695 5.124 14.502 4.498 14.502C2.844 14.502 1.498 15.848 1.498 17.502C1.498 19.156 2.844 20.502 4.498 20.502C6.152 20.502 7.498 19.156 7.498 17.502C7.498 17.202 7.44 16.918 7.358 16.645L9.069 15.39C9.858 16.073 10.874 16.502 11.998 16.502C12.613 16.502 13.199 16.377 13.734 16.152L14.859 17.727C14.635 18.101 14.498 18.534 14.498 19.001C14.498 20.38 15.62 21.501 16.998 21.501C18.376 21.501 19.498 20.38 19.498 19.001C19.498 17.622 18.376 16.501 16.998 16.501C16.821 16.501 16.648 16.521 16.481 16.556L15.351 14.973C16.057 14.178 16.499 13.144 16.499 12.001C16.499 11.46 16.388 10.947 16.212 10.466L18.499 8.98598C18.918 9.30398 19.435 9.49998 20.001 9.49998C21.379 9.49998 22.501 8.37898 22.501 6.99998C22.501 5.62098 21.379 4.49998 20.001 4.49998H20Z" fill="#1D9BF0"/>
</svg>

<svg fill="none" height="24" viewBox="0 0 24 24" width="24" xmlns="http://www.w3.org/2000/svg"><path d="m20 4.49998c-1.378 0-2.5 1.121-2.5 2.5 0 .08.016.155.024.233l-2.392 1.548c-.811-.79-1.915-1.281-3.134-1.281-.635 0-1.238.135-1.786.374l-2.002-2.73c.179-.344.29-.729.29-1.143 0-1.379-1.122-2.5-2.5-2.5s-2.5 1.121-2.5 2.5 1.122 2.5 2.5 2.5c.227 0 .443-.04.653-.097l1.957 2.669c-.683.789-1.112 1.80502-1.112 2.92902 0 .635.135 1.238.374 1.786l-1.686 1.236c-.481-.329-1.062-.522-1.688-.522-1.654 0-3 1.346-3 3s1.346 3 3 3 3-1.346 3-3c0-.3-.058-.584-.14-.857l1.711-1.255c.789.683 1.805 1.112 2.929 1.112.615 0 1.201-.125 1.736-.35l1.125 1.575c-.224.374-.361.807-.361 1.274 0 1.379 1.122 2.5 2.5 2.5s2.5-1.121 2.5-2.5-1.122-2.5-2.5-2.5c-.177 0-.35.02-.517.055l-1.13-1.583c.706-.795 1.148-1.829 1.148-2.972 0-.541-.111-1.054-.287-1.535l2.287-1.48002c.419.318.936.514 1.502.514 1.378 0 2.5-1.121 2.5-2.5s-1.122-2.5-2.5-2.5z" fill="#1d9bf0"/></svg>
